X:2823
T:Ecossaise
C:Friedrich Kuhlau
R:Ecossaise
Z:Transcribed by Frank Nordberg - http://www.musicaviva.com
F:http://abc.musicaviva.com/tunes/kuhlau-friedrich/kuhlau-ecossaise01.abc
V:1 Program 1 0 %Piano
V:2 Program 1 0 bass %Piano
M:2/4
L:1/8
K:Am
V:1
g4|e2a2|f2d2|g3f|egc'b|agfe|d2g2|c2z2:|
V:2
CGEG|^CAEA|DAFA|B,GDG|CGEG|CGEG|B,GFG|[C2E2]z2:|
%
V:1
|:e2^f^g|a2bc'|d'be'd'|c'bc'a|z e^f^g|abc'd'|e'c'd'b|a2 z2:|
V:2
|:[E,4B,4D4]|[E,4A,4C4]|[E,4^G,4B,4]|[E,4A,4C4]|E,2[B,2D2]|E,2[A,2C2]|E,2[^G,2B,2]|[A,2C2]z2:|
W:
W:
W:  From Musica Viva - http://www.musicaviva.com
W:  the Internet center for free sheet music downloads.
